dist/images/icons/apple.svg

<svg width="25" height="24" viewBox="0 0 25 24" fill="none" xmlns="http://www.w3.org/2000/svg">
<path d="M18.1832 12.5555C18.1738 10.957 18.898 9.75234 20.3605 8.86406C19.5426 7.69219 18.3051 7.04766 16.6738 6.92344C15.1293 6.80156 13.4395 7.82344 12.8207 7.82344C12.1668 7.82344 10.6715 6.96563 9.49492 6.96563C7.0668 7.00313 4.48633 8.90156 4.48633 12.7641C4.48633 13.9055 4.69492 15.0844 5.11211 16.2984C5.66992 17.8969 7.68086 21.8133 9.77852 21.75C10.8754 21.7242 11.6512 20.9719 13.0785 20.9719C14.4637 20.9719 15.1809 21.75 16.4043 21.75C18.5207 21.7195 20.3395 18.1594 20.8691 16.5563C18.0309 15.218 18.1832 12.6375 18.1832 12.5555ZM15.7199 5.40703C16.9082 3.99609 16.8004 2.71172 16.7652 2.25C15.7152 2.31094 14.5012 2.96484 13.8098 3.76875C13.048 4.63125 12.6004 5.69766 12.6965 6.9C13.8309 6.98672 14.8668 6.40313 15.7199 5.40703Z" fill="black"/>
</svg>

<svg width="25" height="24" fill="none" xmlns="http://www.w3.org/2000/svg"><path d="M18.183 12.556c-.01-1.599.715-2.804 2.177-3.692-.817-1.172-2.055-1.816-3.686-1.94-1.545-.122-3.234.9-3.853.9-.654 0-2.15-.858-3.326-.858-2.428.037-5.009 1.936-5.009 5.798 0 1.142.209 2.32.626 3.534.558 1.599 2.569 5.515 4.667 5.452 1.096-.026 1.872-.778 3.3-.778 1.385 0 2.102.778 3.325.778 2.117-.03 3.936-3.59 4.465-5.194-2.838-1.338-2.686-3.919-2.686-4zM15.72 5.407c1.188-1.41 1.08-2.695 1.045-3.157-1.05.06-2.264.715-2.955 1.519-.762.862-1.21 1.929-1.114 3.131 1.135.087 2.17-.497 3.024-1.493z" fill="#000"/></svg>
